packages/nodes-base/nodes/SurveyMonkey/surveyMonkey.svg

<?xml version="1.0" encoding="UTF-8"?>
<svg width="60px" height="60px" viewBox="0 0 60 60" version="1.1" xmlns="http://www.w3.org/2000/svg" xmlns:xlink="http://www.w3.org/1999/xlink">
    <title>Artboard</title>
    <g id="Artboard" stroke="none" stroke-width="1" fill="none" fill-rule="evenodd">
        <path d="M53.0495795,42.1783999 C52.5128944,42.1783999 52.0236049,41.9724698 51.6555922,41.6413119 C51.7810511,40.5560046 51.8646903,39.459566 51.8786302,38.3436475 C52.2131871,38.1182375 52.6174434,37.9818784 53.0495795,37.9818784 C54.199619,37.9818784 55.140572,38.9238695 55.140572,40.0843134 C55.142413,40.6390589 54.9229319,41.1717175 54.530596,41.5646362 C54.13826,41.9575548 53.6053518,42.1783999 53.0495795,42.1783999 M6.95042052,42.1783999 C6.39464817,42.1783999 5.86173999,41.9575548 5.46940403,41.5646362 C5.07706807,41.1717175 4.85758704,40.6390589 4.85942798,40.0843134 C4.85942798,38.9238695 5.80038102,37.980487 6.95042052,37.980487 C7.38255657,37.980487 7.78681288,38.119629 8.12136982,38.3436475 C8.1353097,39.459566 8.21894893,40.5560046 8.34440779,41.6413119 C7.96223007,41.986177 7.46561978,42.1775154 6.95042052,42.1783999 M52.9129687,32.9672023 C52.3247061,32.9672023 51.7601413,33.0479046 51.2178802,33.1800894 C49.1352632,24.9122743 42.368849,18.5145271 33.9157102,17.002054 C33.5393337,16.932483 33.1978068,16.8837833 32.8144603,16.8350837 C32.8771897,14.7632599 32.9747688,12.3686268 36.0108731,10.2147093 L35.5299475,9 C35.5299475,9 29.6138655,10.8450224 28.9280238,15.9264867 C28.6324985,14.5434156 25.8737977,12.8138811 24.5076902,12.485506 L23.8288184,13.5847275 C23.8288184,13.5847275 25.6396078,14.4947159 26.0801078,17.002054 C17.629757,18.5173099 10.8647368,24.9136657 8.78211979,33.1800894 C8.22718046,33.0418768 7.65758639,32.9708671 7.08563728,32.9685937 C3.17968496,32.9685937 0,36.1521617 0,40.0843134 C0,44.0081166 3.17968496,47.1986417 7.08563728,47.1986417 C8.00148692,47.1986417 8.87412295,47.0149743 9.67566563,46.7005135 C10.2802889,48.2148952 11.052713,49.6570225 11.9785326,51 L17.8611589,47.02054 L17.8109753,46.9537519 C16.2552855,44.9473248 15.3031922,41.9919496 15.1442777,39.0504887 C14.9672413,35.808481 15.7562381,32.5859533 17.8207332,30.6922312 C22.0751824,27.0578433 26.7074021,28.7136326 29.6096836,32.1991386 L30.3903164,32.1991386 C33.2925979,28.7136326 37.9248176,27.0578433 42.1806607,30.6922312 C44.2437619,32.5859533 45.0327587,35.808481 44.8571163,39.0518801 C44.6968078,41.9919496 43.7447145,44.9473248 42.1890247,46.9551433 L42.1388411,47.0191486 L48.0214674,51 C48.9470578,49.6568832 49.7194678,48.2147823 50.3243344,46.7005135 C51.1482845,47.0271139 52.026431,47.1960947 52.9129687,47.1986417 C56.820315,47.1986417 60,44.0081166 60,40.0843134 C60,36.1507703 56.820315,32.9672023 52.9129687,32.9672023" id="Shape" fill="#00BF6F"></path>
    </g>
</svg>

<svg width="60" height="60" xmlns="http://www.w3.org/2000/svg"><path d="M53.05 42.178a2.081 2.081 0 01-1.394-.537c.125-1.085.209-2.181.223-3.297a2.096 2.096 0 011.17-.362 2.1 2.1 0 011.482 3.583 2.093 2.093 0 01-1.481.613m-46.1 0a2.093 2.093 0 01-2.09-2.094c0-1.16.94-2.104 2.09-2.104.433 0 .837.14 1.171.364.014 1.116.098 2.212.223 3.297a2.086 2.086 0 01-1.394.537m45.963-9.21c-.588 0-1.153.08-1.695.212-2.083-8.268-8.85-14.665-17.302-16.178-.377-.07-.718-.118-1.102-.167.063-2.072.16-4.466 3.197-6.62L35.53 9s-5.916 1.845-6.602 6.926c-.296-1.383-3.054-3.112-4.42-3.44l-.68 1.099s1.812.91 2.252 3.417c-8.45 1.515-15.215 7.912-17.298 16.178a7.137 7.137 0 00-1.696-.211C3.18 32.969 0 36.152 0 40.084 0 44.008 3.18 47.2 7.086 47.2c.915 0 1.788-.184 2.59-.498A21.849 21.849 0 0011.979 51l5.882-3.98-.05-.066c-1.556-2.007-2.508-4.962-2.667-7.904-.177-3.242.612-6.464 2.677-8.358 4.254-3.634 8.886-1.978 11.789 1.507h.78c2.903-3.485 7.535-5.141 11.79-1.507 2.064 1.894 2.853 5.116 2.677 8.36-.16 2.94-1.112 5.895-2.668 7.903l-.05.064L48.02 51a21.88 21.88 0 002.303-4.3 7.08 7.08 0 002.589.499c3.907 0 7.087-3.19 7.087-7.115 0-3.933-3.18-7.117-7.087-7.117" fill="#00BF6F" fill-rule="evenodd"/></svg>
